chrome/icons/broom.svg

<svg width="16" height="16" viewBox="0 0 16 16" fill="none" xmlns="http://www.w3.org/2000/svg">
<g clip-path="url(#clip0_52_1151)">
<path d="M15.8516 0.148438C15.9505 0.242188 16 0.359375 16 0.5C16 0.635417 15.9505 0.752605 15.8516 0.851562L10.5859 6.11719C10.8776 6.48698 11.1029 6.89714 11.2617 7.34766C11.4206 7.79817 11.5 8.26562 11.5 8.75C11.5 9.5052 11.3151 10.2044 10.9453 10.8477C10.5755 11.4909 10.0781 12.0026 9.45312 12.3828L7.42969 15.7578C7.38802 15.8308 7.32942 15.8894 7.25391 15.9336C7.17839 15.9778 7.09636 16 7.00781 16C6.86719 16 6.74739 15.9505 6.64844 15.8516L0.148438 9.35156C0.0494792 9.25261 0 9.13281 0 8.99219C0 8.90364 0.0221355 8.82161 0.0664062 8.74609C0.110677 8.67058 0.16927 8.61198 0.242188 8.57031L3.61719 6.54688C3.99739 5.92188 4.50911 5.42448 5.15234 5.05469C5.79558 4.68489 6.4948 4.5 7.25 4.5C7.73438 4.5 8.20183 4.57942 8.65234 4.73828C9.10286 4.89714 9.51302 5.12239 9.88281 5.41406L15.1484 0.148438C15.2474 0.0494795 15.3646 0 15.5 0C15.6406 0 15.7578 0.0494795 15.8516 0.148438ZM9.11719 11.4141C9.54427 11.112 9.88152 10.7279 10.1289 10.2617C10.3763 9.79558 10.5 9.29167 10.5 8.75C10.5 8.16145 10.3542 7.61848 10.0625 7.12109C9.77083 6.6237 9.3763 6.22917 8.87891 5.9375C8.38152 5.64583 7.83855 5.5 7.25 5.5C6.70833 5.5 6.20442 5.6237 5.73828 5.87109C5.27214 6.11848 4.88802 6.45573 4.58594 6.88281L9.11719 11.4141ZM1.30469 9.10156L6.89844 14.6953L8.4375 12.1328L3.86719 7.5625L1.30469 9.10156Z" fill="context-fill" fill-opacity="context-fill-opacity"/>
</g>
<defs>
<clipPath id="clip0_52_1151">
<rect width="16" height="16" fill="white"/>
</clipPath>
</defs>
</svg>

<svg xmlns="http://www.w3.org/2000/svg" width="16" height="16" fill="none" viewBox="0 0 16 16"><g clip-path="url(#a)"><path fill="context-fill" fill-opacity="context-fill-opacity" d="M15.852.148q.147.14.148.352a.48.48 0 0 1-.148.352l-5.266 5.265A4.26 4.26 0 0 1 11.5 8.75q0 1.132-.555 2.098a4.24 4.24 0 0 1-1.492 1.535L7.43 15.758a.5.5 0 0 1-.176.176.5.5 0 0 1-.246.066.5.5 0 0 1-.36-.148l-6.5-6.5A.5.5 0 0 1 0 8.992q0-.132.066-.246a.5.5 0 0 1 .176-.176l3.375-2.023a4.24 4.24 0 0 1 1.535-1.492A4.14 4.14 0 0 1 7.25 4.5q.726 0 1.402.238.676.239 1.23.676L15.149.148A.48.48 0 0 1 15.5 0q.21 0 .352.148M9.117 11.414a3.3 3.3 0 0 0 1.012-1.152q.37-.699.371-1.512 0-.884-.437-1.629a3.27 3.27 0 0 0-1.184-1.184A3.16 3.16 0 0 0 7.25 5.5q-.813 0-1.512.371T4.586 6.883zM1.305 9.102l5.593 5.593 1.54-2.562-4.57-4.57z"/></g><defs><clipPath id="a"><path d="M0 0h16v16H0z"/></clipPath></defs></svg>
